X: 1
T: Christmas In Killarney
Z: Will Harmon
S: https://thesession.org/tunes/434#setting434
R: jig
M: 6/8
L: 1/8
K: Dmaj
B|:A2 DD2 B|A2 DD2 A|BAG BAG|A2 DD2 A|
B2 cd2 c|B2 A F2 D|EFE D2 C|1 D3 D2 B:|2 D3 D2 E||
|:F2 BB2 c|d2 cB2 c|dcB c2 A|F3 A2 F|E2 AA2 B|
c2 EA2 c|ded c2 B|A3 A2 B|A2 DD2 B|A2 DD2 A|
[1 BAG BAG|A2 DD2 A|B2 cd2 c|B2 AF2 D|EFE D2 C|D3 D2 E:|
[2 F2 D FGA|B3 B2 c|d2 cd2 B|A2 dF2 D|EFE D2 C|D6||

